src/codeschool/codeschool-black.svg

<svg xmlns="http://www.w3.org/2000/svg" width="128" height="128"><path d="M104 65.548l-31.541 31.538c-.413.41-.967.643-1.546.643-.582 0-1.142-.233-1.549-.643l-.039-.039c-.41-.409-.643-.968-.643-1.543v-8.734c0-.575.233-1.133.643-1.543l21.225-21.229-21.225-21.225c-.41-.412-.643-.967-.643-1.547v-8.728c0-.579.233-1.137.643-1.548l.039-.035c.427-.432.986-.643 1.549-.643.557 0 1.117.211 1.546.643l31.538 31.536m-79.997 3.097l31.537 31.538c.413.41.968.643 1.549.643.582 0 1.139-.233 1.55-.643l.038-.039c.41-.409.64-.968.64-1.543v-8.734c0-.575-.23-1.133-.64-1.543l-21.225-21.229 21.225-21.225c.41-.412.64-.967.64-1.547v-8.728c0-.579-.23-1.137-.64-1.548l-.038-.035c-.428-.432-.992-.643-1.55-.643-.561 0-1.122.211-1.546.643l-31.54 31.536"/></svg>

<?xml version="1.0" encoding="UTF-8" standalone="no"?>
<!-- Created with Inkscape (http://www.inkscape.org/) -->

<svg
   xmlns:dc="http://purl.org/dc/elements/1.1/"
   xmlns:cc="http://creativecommons.org/ns#"
   xmlns:rdf="http://www.w3.org/1999/02/22-rdf-syntax-ns#"
   xmlns:svg="http://www.w3.org/2000/svg"
   xmlns="http://www.w3.org/2000/svg"
   xmlns:inkscape="http://www.inkscape.org/namespaces/inkscape"
   version="1.1"
   width="128"
   height="128"
   id="svg2">
  <metadata
     id="metadata10">
    <rdf:RDF>
      <cc:Work
         rdf:about="">
        <dc:format>image/svg+xml</dc:format>
        <dc:type
           rdf:resource="http://purl.org/dc/dcmitype/StillImage" />
      </cc:Work>
    </rdf:RDF>
  </metadata>
  <defs
     id="defs8" />
  <path
     d="M 104,65.548 72.459,97.086 c -0.413,0.41 -0.967,0.643 -1.546,0.643 -0.582,0 -1.142,-0.233 -1.549,-0.643 l -0.039,-0.039 c -0.41,-0.409 -0.643,-0.968 -0.643,-1.543 V 86.77 c 0,-0.575 0.233,-1.133 0.643,-1.543 L 90.55,63.998 69.325,42.773 c -0.41,-0.412 -0.643,-0.967 -0.643,-1.547 v -8.728 c 0,-0.579 0.233,-1.137 0.643,-1.548 l 0.039,-0.035 c 0.427,-0.432 0.986,-0.643 1.549,-0.643 0.557,0 1.117,0.211 1.546,0.643 l 31.538,31.536 M 24,65.548 55.537,97.086 c 0.413,0.41 0.968,0.643 1.549,0.643 0.582,0 1.139,-0.233 1.55,-0.643 l 0.038,-0.039 c 0.41,-0.409 0.64,-0.968 0.64,-1.543 V 86.77 c 0,-0.575 -0.23,-1.133 -0.64,-1.543 L 37.449,63.998 58.674,42.773 c 0.41,-0.412 0.64,-0.967 0.64,-1.547 v -8.728 c 0,-0.579 -0.23,-1.137 -0.64,-1.548 l -0.038,-0.035 c -0.428,-0.432 -0.992,-0.643 -1.55,-0.643 -0.561,0 -1.122,0.211 -1.546,0.643 L 24,62.451"
     inkscape:connector-curvature="0"
     id="path4" />
</svg>
